X: 24
T: Out on the Road
C: Liz Carroll
S: Handout at Roaring Jelly practice
R: jig
Z: 2018 John Chambers <jc:trillian.mit.edu>
M: 6/8
L: 1/8
K: D
A |\
"D"FEF DFA | dfe dcd | "G"BAd BAA | "D"ABA "A7"FEE |\
"(D)"EFE "D"DFA | dfe dcd | "G"BAF "A7"AFE | EFE "D"D2 :|
B |\
"D"Add edB | Adf edB | "D"Add "G"Bdd | "Em"BAF "A7"AFE |\
"D"Add edB | Adf afd | "G"BAF "A7"AFE | EFE "D"D2 ||
B |\
"D"Add edB | Adf edB | "D"Add "G"Bdd | "D"Adf "A7"e2f |\
"D"add fef | "Bm"dBB dcd | "G"BAF "A7"AFE | EFE "D"D2 |]

%%sep 1 1 500

